Backpack-Common/Icons/Assets/Media.xcassets/award-sm.imageset/award-sm.svg

<svg viewBox="0 0 24 24" xmlns="http://www.w3.org/2000/svg"><path d="M15.4314 9.82794L15.3967 9.86049C17.3988 11.0328 18.75 13.2011 18.75 15.6841C18.75 19.4063 15.7222 22.4341 12 22.4341C8.27784 22.4341 5.25001 19.4063 5.25001 15.6841C5.25001 13.2011 6.60121 11.0329 8.60316 9.86058C8.33949 9.61699 8.07484 9.36577 7.81007 9.10057C5.21198 6.59255 3.35059 3.46484 2.64844 2.25195L3.94629 1.5C3.95097 1.50808 3.9557 1.51624 3.96047 1.52448C4.63397 2.68727 6.2009 5.39256 8.86964 8.03905C9.16553 8.33446 9.45997 8.62059 9.75489 8.88719C9.82812 8.95409 9.90181 9.01658 9.97553 9.07908C10.0246 9.12066 10.0736 9.16224 10.1225 9.20512C10.7193 9.0319 11.348 8.93406 12 8.93406C12.3005 8.93406 12.5942 8.96067 12.8844 8.99888C12.4164 8.64634 11.9514 8.28288 11.5029 7.89256C11.0771 7.5161 10.6465 7.11476 10.2153 6.67384C8.93216 5.43968 7.52766 3.59494 6.66633 2.37326L7.89289 1.509C8.69416 2.64621 10.0334 4.40325 11.2837 5.6211C11.5205 5.86298 11.755 6.08814 11.9879 6.30524C12.0433 6.25432 12.0986 6.204 12.1539 6.15374C12.3403 5.9843 12.5261 5.81536 12.7124 5.625C13.9395 4.43749 15.3042 2.64208 16.1055 1.50487L17.332 2.36913C16.4707 3.59081 15.0469 5.46874 13.7807 6.67773C13.628 6.83393 13.4747 6.97365 13.3208 7.11397C13.2555 7.17346 13.1901 7.23306 13.1246 7.29406C13.709 7.77105 14.2412 8.16812 14.6776 8.4725C14.7205 8.43164 14.7632 8.3914 14.8058 8.35121C14.9131 8.25002 15.02 8.14922 15.1294 8.04C17.8115 5.3752 19.2491 2.88386 19.9521 1.66561C19.9846 1.60927 20.0155 1.55565 20.0449 1.50487L21.3428 2.25682C21.3329 2.27388 21.3228 2.29126 21.3126 2.30896C20.5948 3.54935 18.9797 6.34018 16.1889 9.10152C15.9347 9.35619 15.6812 9.5938 15.4314 9.82794ZM14.8064 15.9622C15.0645 15.8666 15.0645 15.5015 14.8064 15.406L13.947 15.088C13.3211 14.8564 12.8276 14.3629 12.596 13.737L12.278 12.8777C12.1825 12.6195 11.8174 12.6195 11.7219 12.8777L11.4039 13.737C11.1723 14.3629 10.6788 14.8564 10.0529 15.088L9.19359 15.406C8.93547 15.5015 8.93547 15.8666 9.19359 15.9622L10.0529 16.2801C10.6788 16.5117 11.1723 17.0052 11.4039 17.6312L11.7219 18.4905C11.8174 18.7486 12.1825 18.7486 12.278 18.4905L12.596 17.6312C12.8276 17.0053 13.3211 16.5117 13.947 16.2801L14.8064 15.9622Z" fill="#161616"/></svg>

<svg xmlns="http://www.w3.org/2000/svg" viewBox="0 0 24 24"><path d="m15.431 9.828-.034.032a6.75 6.75 0 0 1 3.353 5.824 6.757 6.757 0 0 1-6.75 6.75 6.757 6.757 0 0 1-6.75-6.75 6.75 6.75 0 0 1 3.353-5.823 27 27 0 0 1-.793-.76C5.212 6.593 3.35 3.465 2.648 2.25l1.298-.751.014.024c.674 1.164 2.24 3.87 4.91 6.517.296.295.59.582.885.848q.11.1.22.192l.148.126A6.7 6.7 0 0 1 12 8.935c.3 0 .594.026.884.064a25 25 0 0 1-1.381-1.106 24 24 0 0 1-1.288-1.22c-1.283-1.233-2.687-3.078-3.549-4.3l1.227-.864c.801 1.137 2.14 2.894 3.39 4.112.238.242.472.467.705.684l.166-.151c.186-.17.372-.339.558-.529 1.228-1.188 2.592-2.983 3.393-4.12l1.227.864c-.861 1.222-2.285 3.1-3.551 4.309-.153.156-.306.296-.46.436l-.196.18c.584.477 1.116.874 1.553 1.179l.128-.122c.107-.101.214-.202.323-.311 2.682-2.665 4.12-5.156 4.823-6.374l.093-.161 1.298.752-.03.052c-.718 1.24-2.333 4.031-5.124 6.793-.254.254-.508.492-.758.726m-.625 6.134a.297.297 0 0 0 0-.556l-.859-.318a2.3 2.3 0 0 1-1.351-1.351l-.318-.86a.296.296 0 0 0-.556 0l-.318.86a2.3 2.3 0 0 1-1.351 1.351l-.86.318a.297.297 0 0 0 0 .556l.86.318c.626.232 1.12.725 1.35 1.351l.319.86c.095.258.46.258.556 0l.318-.86a2.3 2.3 0 0 1 1.351-1.35z"/></svg>
